X:15
T:Bob Sanders. Ca1758.039
M:6/8
L:1/8
Q:3/8=110
B:Cahusac,T. 24 Country Dances for the Year 1758
Z:vmp.Mike Hicken 2015 www.village-music-project.org.uk
N:* There is no repeat sign shown here in the original.
K:A
E|Aec Aec|Bcd d3|cBA GAB|AED CB,A,|
Aec Ace|agf gfe|^dBd fed|eBG E2 :|
|: e|e=gf edc|dBd f^ab|dfe dcB|cAc ega|
fed cBA|GFE dBd|cBA GFE|AEC A,2 "*" :|
W:
W: Hands all Six round .|  and back again :|
W: then lead down two Cu. the 2d. and 3d. Cu. fol-
W: lows .|  foot it and turn your Partner and
W: cast off :|  the Man hands round with the 3d. Cu.
W: the Wo. heys with the 2d. Cu. .|  the Man heys with
W: the 3d. Cu. and the Wo. hands 3 with the 2d, Cu.
W: :| then lead thro' Bottom and top and turn

